assets/Comet/Flat/comet_flat.svg

<svg width="32" height="32" viewBox="0 0 32 32" fill="none" xmlns="http://www.w3.org/2000/svg">
<path d="M28.1475 3.12293L23.7375 6.53293V5.50293C23.7375 4.97293 23.0975 4.70293 22.7175 5.08293L18.7775 9.02293V7.63293C18.7775 7.10293 18.1375 6.83293 17.7575 7.21293L13.1175 11.8529V10.4629C13.1175 9.93293 12.4775 9.66293 12.0975 10.0429L6.0475 16.0929C3.3175 18.8229 3.3175 23.2629 6.0475 25.9929C8.7775 28.7229 13.2175 28.7229 15.9475 25.9929L22.0075 19.9329C22.3775 19.5629 22.1175 18.9129 21.5875 18.9129H20.1975L24.8375 14.2729C25.2075 13.9029 24.9475 13.2529 24.4175 13.2529H23.0275L26.9575 9.32293C27.3275 8.95293 27.0675 8.30293 26.5375 8.30293H25.5075L28.9075 3.90293C29.3175 3.38293 28.6575 2.72293 28.1475 3.12293Z" fill="#D3D3D3"/>
<path d="M22.0176 10.5229C22.0176 10.7991 21.7937 11.0229 21.5176 11.0229C21.2414 11.0229 21.0176 10.7991 21.0176 10.5229C21.0176 10.2468 21.2414 10.0229 21.5176 10.0229C21.7937 10.0229 22.0176 10.2468 22.0176 10.5229Z" fill="#F8312F"/>
<path d="M16.0176 21.0229C16.0176 23.7844 13.779 26.0229 11.0176 26.0229C8.25615 26.0229 6.01758 23.7844 6.01758 21.0229C6.01758 18.2615 8.25615 16.0229 11.0176 16.0229C13.779 16.0229 16.0176 18.2615 16.0176 21.0229Z" fill="#F8312F"/>
<path d="M15.5176 13.0229C15.7937 13.0229 16.0176 12.7991 16.0176 12.5229C16.0176 12.2468 15.7937 12.0229 15.5176 12.0229C15.2414 12.0229 15.0176 12.2468 15.0176 12.5229C15.0176 12.7991 15.2414 13.0229 15.5176 13.0229Z" fill="#F8312F"/>
<path d="M18.0176 19.5229C18.0176 19.7991 17.7937 20.0229 17.5176 20.0229C17.2414 20.0229 17.0176 19.7991 17.0176 19.5229C17.0176 19.2468 17.2414 19.0229 17.5176 19.0229C17.7937 19.0229 18.0176 19.2468 18.0176 19.5229Z" fill="#F8312F"/>
<path d="M12.5176 15.0229C12.7937 15.0229 13.0176 14.7991 13.0176 14.5229C13.0176 14.2468 12.7937 14.0229 12.5176 14.0229C12.2414 14.0229 12.0176 14.2468 12.0176 14.5229C12.0176 14.7991 12.2414 15.0229 12.5176 15.0229Z" fill="#F8312F"/>
<path d="M17.0075 16.023C17.0075 16.5697 16.5642 17.013 16.0175 17.013C15.4707 17.013 15.0275 16.5697 15.0275 16.023C15.0275 15.4762 15.4707 15.033 16.0175 15.033C16.5642 15.033 17.0075 15.4762 17.0075 16.023Z" fill="#F8312F"/>
<path d="M19.0176 12.7729C19.4318 12.7729 19.7676 12.4372 19.7676 12.0229C19.7676 11.6087 19.4318 11.2729 19.0176 11.2729C18.6034 11.2729 18.2676 11.6087 18.2676 12.0229C18.2676 12.4372 18.6034 12.7729 19.0176 12.7729Z" fill="#F8312F"/>
<path d="M19.7676 15.0229C19.7676 15.4372 19.4318 15.7729 19.0176 15.7729C18.6034 15.7729 18.2676 15.4372 18.2676 15.0229C18.2676 14.6087 18.6034 14.2729 19.0176 14.2729C19.4318 14.2729 19.7676 14.6087 19.7676 15.0229Z" fill="#F8312F"/>
</svg>

<svg xmlns="http://www.w3.org/2000/svg" width="32" height="32" fill="none"><path fill="#D3D3D3" d="m28.148 3.123-4.41 3.41v-1.03c0-.53-.64-.8-1.02-.42l-3.94 3.94v-1.39c0-.53-.64-.8-1.02-.42l-4.64 4.64v-1.39c0-.53-.64-.8-1.02-.42l-6.05 6.05a7.007 7.007 0 0 0 0 9.9 7.007 7.007 0 0 0 9.9 0l6.06-6.06c.37-.37.11-1.02-.42-1.02h-1.39l4.64-4.64c.37-.37.11-1.02-.42-1.02h-1.39l3.93-3.93c.37-.37.11-1.02-.42-1.02h-1.03l3.4-4.4c.41-.52-.25-1.18-.76-.78Z"/><path fill="#F8312F" d="M22.018 10.523a.5.5 0 1 1-1 0 .5.5 0 0 1 1 0ZM16.018 21.023a5 5 0 1 1-10 0 5 5 0 0 1 10 0ZM15.518 13.023a.5.5 0 1 0 0-1 .5.5 0 0 0 0 1ZM18.018 19.523a.5.5 0 1 1-1 0 .5.5 0 0 1 1 0ZM12.518 15.023a.5.5 0 1 0 0-1 .5.5 0 0 0 0 1ZM17.008 16.023a.99.99 0 1 1-1.98 0 .99.99 0 0 1 1.98 0ZM19.018 12.773a.75.75 0 1 0 0-1.5.75.75 0 0 0 0 1.5ZM19.768 15.023a.75.75 0 1 1-1.5 0 .75.75 0 0 1 1.5 0Z"/></svg>
